source/svgs/bowtie/uEA4C-log-remove.svg

<svg xmlns="http://www.w3.org/2000/svg" viewBox="0 0 448 448" enable-background="new 0 0 448 448"><rect x="128" y="192" width="64" height="32"/><rect x="128" y="256" width="64" height="32"/><rect x="128" y="320" width="64" height="32"/><rect x="128" y="384" width="64" height="32"/><path d="M448 96v352h-288v-256h32v224h224v-288h-192v-32h224zm-64 160h-160v-96h160v96zm-32-64h-96v32h96v-32zm-219.312-187.312l-52.688 52.687-52.687-52.687-22.625 22.625 52.687 52.687-52.687 52.688 22.625 22.625 52.687-52.688 52.688 52.688 22.625-22.625-52.688-52.688 52.688-52.688-22.625-22.624z"/></svg>

<svg xmlns="http://www.w3.org/2000/svg" viewBox="0 0 448 448"><path d="M128 192h64v32h-64zM128 256h64v32h-64zM128 320h64v32h-64zM128 384h64v32h-64z"/><path d="M448 96v352H160V192h32v224h224V128H224V96h224zm-64 160H224v-96h160v96zm-32-64h-96v32h96v-32zM132.688 4.688L80 57.375 27.313 4.688 4.688 27.313 57.375 80 4.688 132.688l22.625 22.625L80 102.625l52.688 52.688 22.625-22.625L102.625 80l52.688-52.688-22.625-22.624z"/></svg>
